imgs/inst-footer.svg

<svg width="17" height="17" viewBox="0 0 17 17" fill="none" xmlns="http://www.w3.org/2000/svg">
<path d="M8.07438 5.8394C6.59621 5.8394 5.38991 7.0457 5.38991 8.52388C5.38991 10.0021 6.59621 11.2084 8.07438 11.2084C9.55256 11.2084 10.7589 10.0021 10.7589 8.52388C10.7589 7.0457 9.55256 5.8394 8.07438 5.8394ZM16.1258 8.52388C16.1258 7.41223 16.1359 6.31064 16.0734 5.20101C16.011 3.91214 15.717 2.76826 14.7745 1.82578C13.83 0.881276 12.6881 0.589266 11.3993 0.526836C10.2876 0.464407 9.18603 0.474476 8.0764 0.474476C6.96475 0.474476 5.86317 0.464407 4.75353 0.526836C3.46466 0.589266 2.32078 0.88329 1.3783 1.82578C0.433797 2.77028 0.141787 3.91214 0.0793571 5.20101C0.0169274 6.31266 0.0269967 7.41424 0.0269967 8.52388C0.0269967 9.63351 0.0169274 10.7371 0.0793571 11.8467C0.141787 13.1356 0.43581 14.2795 1.3783 15.222C2.3228 16.1665 3.46466 16.4585 4.75353 16.5209C5.86518 16.5833 6.96676 16.5733 8.0764 16.5733C9.18805 16.5733 10.2896 16.5833 11.3993 16.5209C12.6881 16.4585 13.832 16.1645 14.7745 15.222C15.719 14.2775 16.011 13.1356 16.0734 11.8467C16.1379 10.7371 16.1258 9.63553 16.1258 8.52388ZM8.07438 12.6543C5.78865 12.6543 3.94396 10.8096 3.94396 8.52388C3.94396 6.23815 5.78865 4.39345 8.07438 4.39345C10.3601 4.39345 12.2048 6.23815 12.2048 8.52388C12.2048 10.8096 10.3601 12.6543 8.07438 12.6543ZM12.374 5.18892C11.8403 5.18892 11.4093 4.75796 11.4093 4.22428C11.4093 3.69061 11.8403 3.25965 12.374 3.25965C12.9076 3.25965 13.3386 3.69061 13.3386 4.22428C13.3388 4.35101 13.3139 4.47652 13.2655 4.59362C13.2171 4.71073 13.146 4.81714 13.0564 4.90674C12.9668 4.99635 12.8604 5.0674 12.7433 5.11582C12.6262 5.16424 12.5007 5.18908 12.374 5.18892Z" fill="white" fill-opacity="0.8"/>
</svg>

<svg xmlns="http://www.w3.org/2000/svg" width="17" height="17" fill="none" xmlns:v="https://vecta.io/nano"><path d="M8.074 5.839A2.69 2.69 0 0 0 5.39 8.524a2.69 2.69 0 0 0 2.684 2.685 2.69 2.69 0 0 0 2.685-2.685 2.69 2.69 0 0 0-2.685-2.684zm8.051 2.684l-.052-3.323c-.062-1.289-.356-2.433-1.299-3.375S12.688.589 11.399.527L8.076.474c-1.112 0-2.213-.01-3.323.052-1.289.062-2.433.356-3.375 1.299S.142 3.912.079 5.201L.027 8.524l.052 3.323c.062 1.289.356 2.433 1.299 3.375s2.086 1.237 3.375 1.299l3.323.052 3.323-.052c1.289-.062 2.433-.356 3.375-1.299s1.236-2.086 1.299-3.375l.052-3.323zm-8.051 4.13c-2.286 0-4.13-1.845-4.13-4.13s1.845-4.13 4.13-4.13 4.13 1.845 4.13 4.13-1.845 4.13-4.13 4.13zm4.3-7.465c-.534 0-.965-.431-.965-.965s.431-.965.965-.965.965.431.965.965c0 .127-.025.252-.073.369s-.119.224-.209.313-.196.161-.313.209-.243.073-.369.073z" fill="#fff" fill-opacity=".8"/></svg>
